static/img/kroki/30765b0411d16b543dc1ddf5293175db.svg

<?xml version="1.0" encoding="us-ascii" standalone="no"?><svg xmlns="http://www.w3.org/2000/svg" xmlns:xlink="http://www.w3.org/1999/xlink" contentStyleType="text/css" height="374px" preserveAspectRatio="none" style="width:303px;height:374px;" version="1.1" viewBox="0 0 303 374" width="303px" zoomAndPan="magnify"><defs/><g><!--class gcp_disk--><g id="elem_gcp_disk"><rect codeLine="23" fill="#3D176E" height="39.7891" id="gcp_disk" rx="2.5" ry="2.5" style="stroke:#000D19;stroke-width:0.5;" width="112" x="106" y="328.58"/><ellipse cx="121" cy="348.4745" fill="#ADD1B2" rx="11" ry="11" style="stroke:#181818;stroke-width:1.0;"/><path d="M123.9688,354.1152 Q123.3906,354.412 122.75,354.5527 Q122.1094,354.7089 121.4063,354.7089 Q118.9063,354.7089 117.5781,353.0683 Q116.2656,351.412 116.2656,348.287 Q116.2656,345.162 117.5781,343.5058 Q118.9063,341.8495 121.4063,341.8495 Q122.1094,341.8495 122.75,342.0058 Q123.4063,342.162 123.9688,342.4589 L123.9688,345.1777 Q123.3438,344.5995 122.75,344.3339 Q122.1563,344.0527 121.5313,344.0527 Q120.1875,344.0527 119.5,345.1308 Q118.8125,346.1933 118.8125,348.287 Q118.8125,350.3808 119.5,351.4589 Q120.1875,352.5214 121.5313,352.5214 Q122.1563,352.5214 122.75,352.2558 Q123.3438,351.9745 123.9688,351.3964 L123.9688,354.1152 Z " fill="#000000"/><text fill="#D9B8FF" font-family="Helvetica" font-size="17" lengthAdjust="spacing" textLength="70" x="140" y="354.3598">gcp_disk</text></g><!--class gcp_resource--><g id="elem_gcp_resource"><rect codeLine="26" fill="#3D176E" height="39.7891" id="gcp_resource" rx="2.5" ry="2.5" style="stroke:#000D19;stroke-width:0.5;" width="150" x="7" y="167.79"/><ellipse cx="22" cy="187.6845" fill="#ADD1B2" rx="11" ry="11" style="stroke:#181818;stroke-width:1.0;"/><path d="M24.9688,193.3252 Q24.3906,193.622 23.75,193.7627 Q23.1094,193.9189 22.4063,193.9189 Q19.9063,193.9189 18.5781,192.2783 Q17.2656,190.622 17.2656,187.497 Q17.2656,184.372 18.5781,182.7158 Q19.9063,181.0595 22.4063,181.0595 Q23.1094,181.0595 23.75,181.2158 Q24.4063,181.372 24.9688,181.6689 L24.9688,184.3877 Q24.3438,183.8095 23.75,183.5439 Q23.1563,183.2627 22.5313,183.2627 Q21.1875,183.2627 20.5,184.3408 Q19.8125,185.4033 19.8125,187.497 Q19.8125,189.5908 20.5,190.6689 Q21.1875,191.7314 22.5313,191.7314 Q23.1563,191.7314 23.75,191.4658 Q24.3438,191.1845 24.9688,190.6064 L24.9688,193.3252 Z " fill="#000000"/><text fill="#D9B8FF" font-family="Helvetica" font-size="17" lengthAdjust="spacing" textLength="108" x="41" y="193.5698">gcp_resource</text></g><!--class resource--><g id="elem_resource"><rect codeLine="29" fill="#3D176E" height="39.7891" id="resource" rx="2.5" ry="2.5" style="stroke:#000D19;stroke-width:0.5;" width="113" x="105.5" y="7"/><ellipse cx="120.5" cy="26.8945" fill="#ADD1B2" rx="11" ry="11" style="stroke:#181818;stroke-width:1.0;"/><path d="M123.4688,32.5352 Q122.8906,32.832 122.25,32.9727 Q121.6094,33.1289 120.9063,33.1289 Q118.4063,33.1289 117.0781,31.4883 Q115.7656,29.832 115.7656,26.707 Q115.7656,23.582 117.0781,21.9258 Q118.4063,20.2695 120.9063,20.2695 Q121.6094,20.2695 122.25,20.4258 Q122.9063,20.582 123.4688,20.8789 L123.4688,23.5977 Q122.8438,23.0195 122.25,22.7539 Q121.6563,22.4727 121.0313,22.4727 Q119.6875,22.4727 119,23.5508 Q118.3125,24.6133 118.3125,26.707 Q118.3125,28.8008 119,29.8789 Q119.6875,30.9414 121.0313,30.9414 Q121.6563,30.9414 122.25,30.6758 Q122.8438,30.3945 123.4688,29.8164 L123.4688,32.5352 Z " fill="#000000"/><text fill="#D9B8FF" font-family="Helvetica" font-size="17" lengthAdjust="spacing" textLength="71" x="139.5" y="32.7798">resource</text></g><!--class volume--><g id="elem_volume"><rect codeLine="32" fill="#3D176E" height="39.7891" id="volume" rx="2.5" ry="2.5" style="stroke:#000D19;stroke-width:0.5;" width="105" x="191.5" y="167.79"/><ellipse cx="206.5" cy="187.6845" fill="#ADD1B2" rx="11" ry="11" style="stroke:#181818;stroke-width:1.0;"/><path d="M209.4688,193.3252 Q208.8906,193.622 208.25,193.7627 Q207.6094,193.9189 206.9063,193.9189 Q204.4063,193.9189 203.0781,192.2783 Q201.7656,190.622 201.7656,187.497 Q201.7656,184.372 203.0781,182.7158 Q204.4063,181.0595 206.9063,181.0595 Q207.6094,181.0595 208.25,181.2158 Q208.9063,181.372 209.4688,181.6689 L209.4688,184.3877 Q208.8438,183.8095 208.25,183.5439 Q207.6563,183.2627 207.0313,183.2627 Q205.6875,183.2627 205,184.3408 Q204.3125,185.4033 204.3125,187.497 Q204.3125,189.5908 205,190.6689 Q205.6875,191.7314 207.0313,191.7314 Q207.6563,191.7314 208.25,191.4658 Q208.8438,191.1845 209.4688,190.6064 L209.4688,193.3252 Z " fill="#000000"/><text fill="#D9B8FF" font-family="Helvetica" font-size="17" lengthAdjust="spacing" textLength="63" x="225.5" y="193.5698">volume</text></g><!--reverse link gcp_resource to gcp_disk--><g id="link_gcp_resource_gcp_disk"><path codeLine="35" d="M99.7504,223.9143 C115.1304,254.4343 136.92,297.69 152.32,328.25 " fill="none" id="gcp_resource-backto-gcp_disk" style="stroke:#FFAF37;stroke-width:2.0;"/><polygon fill="none" points="91.65,207.84,94.3923,226.6145,105.1085,221.2142,91.65,207.84" style="stroke:#FFAF37;stroke-width:2.0;"/></g><!--reverse link volume to gcp_disk--><g id="link_volume_gcp_disk"><path codeLine="36" d="M225.8512,223.8335 C210.0912,254.3535 187.71,297.69 171.93,328.25 " fill="none" id="volume-backto-gcp_disk" style="stroke:#FFAF37;stroke-width:2.0;"/><polygon fill="none" points="234.11,207.84,220.5201,221.0806,231.1824,226.5864,234.11,207.84" style="stroke:#FFAF37;stroke-width:2.0;"/></g><!--reverse link resource to gcp_resource--><g id="link_resource_gcp_resource"><path codeLine="37" d="M144.2496,63.1243 C128.8696,93.6443 107.08,136.9 91.68,167.46 " fill="none" id="resource-backto-gcp_resource" style="stroke:#FFAF37;stroke-width:2.0;"/><polygon fill="none" points="152.35,47.05,138.8915,60.4242,149.6077,65.8245,152.35,47.05" style="stroke:#FFAF37;stroke-width:2.0;"/></g><!--reverse link resource to volume--><g id="link_resource_volume"><path codeLine="38" d="M180.1488,63.0435 C195.9088,93.5635 218.29,136.9 234.07,167.46 " fill="none" id="resource-backto-volume" style="stroke:#FFAF37;stroke-width:2.0;"/><polygon fill="none" points="171.89,47.05,174.8176,65.7964,185.4799,60.2906,171.89,47.05" style="stroke:#FFAF37;stroke-width:2.0;"/></g><!--SRC=[XP3BReCm44NtV8Mbh96WKKkGkacGgdOJLKttbS5ZiC0s6fj4wUFVsnGIEOOastEFP-wu4Wm8oDRkYGIP0vh0r4Ar5AaaIqIzotIZaSmuftoU-E6JLlQciAOIo3CqMx2YeBxnNecYLc0CkNEY5Itg4dMdM3_U8bNcBm9b7Ijhg35BQr7adGMd34lp1UU-wG-TpLcSFC18qyW01oMA8XQdld9prTMxJyP6V0A9tKzRQmkZcgCL_zRLbWV3AJawz9XVxFXA6HEg9FSEU-ixeG8yuvkAChqxs9msnbrZB21eksyX6rq5wOBnP59-kIG7nU7hI5cq7qoOcdm5mO_348pki02NJx6jRZevaBDtZzzX69x61uFdqGdxYFoi7n3y0W00]--></g></svg>

<svg xmlns="http://www.w3.org/2000/svg" width="303" height="374" viewBox="0 0 303 374"><rect width="112" height="39.789" x="106" y="328.58" fill="#3D176E" rx="2.5" ry="2.5" style="stroke:#000d19;stroke-width:.5"/><circle cx="121" cy="348.474" r="11" fill="#ADD1B2" style="stroke:#181818;stroke-width:1"/><path d="M123.969 354.115q-.578.297-1.219.438-.64.156-1.344.156-2.5 0-3.828-1.64-1.312-1.657-1.312-4.782t1.312-4.781q1.328-1.656 3.828-1.656.703 0 1.344.156.656.156 1.219.453v2.719q-.625-.579-1.219-.844-.594-.281-1.219-.281-1.344 0-2.031 1.078-.687 1.062-.687 3.156t.687 3.172q.688 1.062 2.031 1.062.625 0 1.219-.265.594-.281 1.219-.86z"/><text x="140" y="354.36" fill="#D9B8FF" font-family="Helvetica" font-size="17" textLength="70">gcp_disk</text><rect width="150" height="39.789" x="7" y="167.79" fill="#3D176E" rx="2.5" ry="2.5" style="stroke:#000d19;stroke-width:.5"/><circle cx="22" cy="187.685" r="11" fill="#ADD1B2" style="stroke:#181818;stroke-width:1"/><path d="M24.969 193.325q-.578.297-1.219.438-.64.156-1.344.156-2.5 0-3.828-1.64-1.312-1.657-1.312-4.782t1.312-4.781q1.328-1.656 3.828-1.656.703 0 1.344.156.656.156 1.219.453v2.719q-.625-.578-1.219-.844-.594-.281-1.219-.281-1.343 0-2.031 1.078-.687 1.062-.687 3.156t.687 3.172q.688 1.062 2.031 1.062.625 0 1.219-.265.594-.281 1.219-.86z"/><text x="41" y="193.57" fill="#D9B8FF" font-family="Helvetica" font-size="17" textLength="108">gcp_resource</text><rect width="113" height="39.789" x="105.5" y="7" fill="#3D176E" rx="2.5" ry="2.5" style="stroke:#000d19;stroke-width:.5"/><circle cx="120.5" cy="26.895" r="11" fill="#ADD1B2" style="stroke:#181818;stroke-width:1"/><path d="M123.469 32.535q-.578.297-1.219.438-.64.156-1.344.156-2.5 0-3.828-1.64-1.312-1.657-1.312-4.782t1.312-4.781q1.328-1.656 3.828-1.656.703 0 1.344.156.656.156 1.219.453v2.719q-.625-.578-1.219-.844-.594-.281-1.219-.281-1.344 0-2.031 1.078-.687 1.062-.687 3.156t.687 3.172q.688 1.062 2.031 1.062.625 0 1.219-.265.594-.281 1.219-.86z"/><text x="139.5" y="32.78" fill="#D9B8FF" font-family="Helvetica" font-size="17" textLength="71">resource</text><rect width="105" height="39.789" x="191.5" y="167.79" fill="#3D176E" rx="2.5" ry="2.5" style="stroke:#000d19;stroke-width:.5"/><circle cx="206.5" cy="187.685" r="11" fill="#ADD1B2" style="stroke:#181818;stroke-width:1"/><path d="M209.469 193.325q-.578.297-1.219.438-.64.156-1.344.156-2.5 0-3.828-1.64-1.312-1.657-1.312-4.782t1.312-4.781q1.328-1.656 3.828-1.656.703 0 1.344.156.656.156 1.219.453v2.719q-.625-.578-1.219-.844-.594-.281-1.219-.281-1.344 0-2.031 1.078-.687 1.062-.687 3.156t.687 3.172q.688 1.062 2.031 1.062.625 0 1.219-.265.594-.281 1.219-.86z"/><text x="225.5" y="193.57" fill="#D9B8FF" font-family="Helvetica" font-size="17" textLength="63">volume</text><g fill="none"><path d="M99.75 223.914c15.38 30.52 37.17 73.776 52.57 104.336" style="stroke:#ffaf37;stroke-width:2"/><path d="m91.65 207.84 2.742 18.774 10.717-5.4z" style="stroke:#ffaf37;stroke-width:2"/></g><path fill="none" d="M225.851 223.834c-15.76 30.52-38.141 73.856-53.921 104.416m62.18-120.41-13.59 13.24 10.662 5.506zM144.25 63.124c-15.38 30.52-37.17 73.776-52.57 104.336m60.67-120.41-13.458 13.374 10.716 5.4zm27.799 15.994c15.76 30.52 38.141 73.856 53.921 104.416M171.89 47.05l2.928 18.746 10.662-5.505z" style="stroke:#ffaf37;stroke-width:2"/></svg>
